icon-themes/breeze_svg/cmd/lc_name.svg

<svg viewBox="0 0 24 24" xmlns="http://www.w3.org/2000/svg"><path d="m4 4v1 15h1 10v-1-2-1-1-1-1-2h4 1v-6-1zm1 1h4v1 1h-1-3zm5 0h4v1 1h-4v-1zm5 0h4v2h-3-1v-1zm-10 3h3 1v1 1h-4v-1zm5 0h4v1 1h-4v-1zm5 0h4v1 1h-4v-1zm-10 3h4v2h-4zm5 0h4v2h-4zm-5 3h4v1 1h-1-3v-1zm5 0h4v2h-4v-1zm-5 3h3 1v1.099609.900391h-4zm5 0h4v2h-4z" fill="#4d4d4d"/><path d="m16 12v1h2v6h-2v1h5v-1h-2v-6h2v-1z" fill="#1d99f3"/></svg>

<svg xmlns="http://www.w3.org/2000/svg" viewBox="0 0 24 24">
  <path
     style="fill:#4d4d4d"
     d="M 4 4 L 4 5 L 4 20 L 5 20 L 15 20 L 15 19 L 15 17 L 15 16 L 15 15 L 15 14 L 15 13 L 15 11 L 19 11 L 20 11 L 20 5 L 20 4 L 4 4 z M 5 5 L 9 5 L 9 6 L 9 7 L 8 7 L 5 7 L 5 5 z M 10 5 L 14 5 L 14 6 L 14 7 L 10 7 L 10 6 L 10 5 z M 15 5 L 19 5 L 19 7 L 16 7 L 15 7 L 15 6 L 15 5 z M 5 8 L 8 8 L 9 8 L 9 9 L 9 10 L 5 10 L 5 9 L 5 8 z M 10 8 L 14 8 L 14 9 L 14 10 L 10 10 L 10 9 L 10 8 z M 15 8 L 19 8 L 19 9 L 19 10 L 15 10 L 15 9 L 15 8 z M 5 11 L 9 11 L 9 13 L 5 13 L 5 11 z M 10 11 L 14 11 L 14 13 L 10 13 L 10 11 z M 5 14 L 9 14 L 9 15 L 9 16 L 8 16 L 5 16 L 5 15 L 5 14 z M 10 14 L 14 14 L 14 16 L 10 16 L 10 15 L 10 14 z M 5 17 L 8 17 L 9 17 L 9 18.099609 L 9 19 L 5 19 L 5 17 z M 10 17 L 14 17 L 14 19 L 10 19 L 10 17 z "
     />
  <path
     style="fill:#1d99f3"
     d="m 16,12 v 1 h 2 v 6 h -2 v 1 h 5 v -1 h -2 v -6 h 2 v -1 z"
     />
</svg>
